X:106
T:I rode my little horse - Hext
C:Taken down from John Hext, shepherd, Post Bridge, 1890 by F.W.B.
%%VWML:SBG-1-1-470-0
F:http://www.vwml.org/record/SBG/1/1/470
Z:Original Sibleius Transcription by Martin and Shan Graebe
L:1/8
M:2/4
I:linebreak $
K:G
d | B d B G | E2 B,C | D D E D | G3 d | B d B G | E2 B,C | D D E D |$ G3 G | c B c d | 
e d d3/2 d/ | G G d G | GFE D | B d B G | G E E E |$ D D E F | G3"^Chorus" G | D D A3/2 B/ | 
c3 d/c/ | B d B G | E E B, C | D c B A | !fermata!G4 |] 
T:I rode my little horse - Fry
T:Taken down from Edm. Fry, by S.B.G.
L:1/8
M:2/4
I:linebreak $
K:E
B | G B G E |{D} C2 z C | B, B, C E | E3 B :| G B E D | C2 z C | B, B, C E |$ E3 G | A G A B | 
c3 c | BA e e | d c B B | c B A G | B2 B G | B, B, C E | E3  |] 



